X:26
T:Sl\"angpolska fr{\aa}n Blekinge
R:sl-polska
H:efter systrarna Forsstr\"omson, M\"orrum
H:jfr nr 106
A:Blekinge
Z:id:hn-sp-26
M:3/4
L:1/16
K:Am
AB|:c2cA B2BG A2AG|AGAB cBcd e2AB|c2cA B2BG A2AA|1 G2A2 A6AB:|2 G2A2 A4 c2d2||
|:e4 g4 e4|e2de d4 B3c|d2dB d2dB cBcd|edcB cBcd c2d2|
e4 g4 e4|e2de d4 B3c|d2dB d2dB cBcd|edcB cBcd e2AB|
c2cA B2BG A2AG|AGAB cBcd e2AB|c2cA B2BG A2AA|1 G2A2 A4 c2d2:|2 G2A2 A6||
